X:340
T:Valse à Donald
M:3/4
L:1/4
C:Claude Méthé
K:A
A B|:"A"c3|c B A|"D"f2 e|"A"c3/2 A/2 B|c/2e/2-e2|"F#m"c B A|"Bm"F2 A|"E7"B3/2 A/2 B|
"A"c3|c B A|"D"f2 e|"A"c3/2 A/2 B|c/2e/2-e2|"F#m"c B A|"D"F2 A|1"A / Fine"A3/2 A/2 B:|2"A"A a e|
|:"D"f3|f a3/2 f/2|"A"e c2|c a e|"D"f3/2 d/2 e|"B7"f g a|
"E"b3|"E7"a g e|"D"f3|f a3/2 f/2|"A"e c2|"A"c B A|
[1"A"c3/2 A/2 c|"Bm"d3/2 B/2 d|"A/C#"e c e|"D"f a3/2 g/2:|[2"D"f3/2 d/2 f|"E"g e g|"F#m"a f a|"E/G#"b A B||

%%newpage

